source/img/icons/social-fb.svg

<svg width="16" height="30" viewBox="0 0 16 30" xmlns="http://www.w3.org/2000/svg">
<path d="M12.3025 5.94251C13.3014 5.94251 14.3004 5.94251 14.9996 5.63003C15.3992 4.79672 15.599 3.65093 15.599 2.50514C15.3992 2.50514 15.4991 2.19265 15.3992 2.08849C15.3992 1.88016 15.0995 1.88016 15.0995 1.67183C14.7999 1.46351 14.6001 1.25518 14.4003 1.04686C13.701 0.83853 13.0018 0.734367 12.2026 0.526042C11.4035 0.526042 10.3046 0.421877 9.60539 0.630203C7.00816 0.630203 5.60965 1.776 4.31104 3.13011C4.31104 3.23428 4.31104 3.33844 4.21114 3.33844C3.61178 5.00505 4.11125 7.0883 4.01136 9.17156C4.11125 9.58821 4.11125 10.2132 4.21114 10.6298C3.21221 10.9423 2.01349 11.0465 0.814769 11.1507C0.515089 11.4631 0.614982 12.2965 0.614982 12.9214C0.714875 13.5464 0.914664 14.0672 1.01456 14.588C1.21434 14.7964 1.61392 15.0047 1.8137 15.1089C1.9136 15.1089 1.9136 15.213 1.9136 15.213C2.41306 15.5255 3.412 15.213 4.21114 15.3172C4.11125 17.4004 4.51082 19.3795 4.21114 21.2545C4.21114 21.567 4.51083 21.6711 4.41093 22.0878C4.41093 23.1294 4.31104 24.171 4.61072 24.9002C4.31104 25.421 4.11125 25.9418 4.21114 26.7751C4.31104 26.7751 4.31104 26.9834 4.31104 27.0876C4.21115 27.6084 4.9104 27.2959 4.81051 27.8167C5.01029 28.3375 4.41093 28.025 4.41093 28.3375V29.275C4.9104 29.5875 5.90933 29.4833 6.70848 29.4833C7.60752 29.0667 8.90614 28.9625 9.5055 28.2334C10.005 28.4417 10.4045 28.2334 10.7042 28.0251C10.7042 27.7126 11.0039 27.7126 10.904 27.2959C10.904 26.9834 10.7042 26.7751 10.8041 26.3584V23.3377C10.6043 20.942 10.8041 18.2337 10.5044 15.838C11.4035 15.7338 12.4024 15.7338 13.1017 15.4213C13.5012 14.9005 13.5012 14.1714 13.6011 13.4422C13.8009 13.2339 13.8009 12.8173 13.8009 12.4006C14.0007 12.1923 13.9008 11.6715 13.9008 11.2548C13.8009 10.6298 13.701 9.90071 13.1017 9.79654C12.2026 9.58822 11.1038 10.4215 10.1049 10.109C10.1049 8.96324 9.80518 7.71328 10.1049 6.56749C10.904 6.35916 11.6033 6.15084 12.3025 5.94251ZM8.50657 10.9423C8.60646 11.2548 8.80625 11.4631 8.90614 11.6715C9.00603 11.6715 9.10592 11.6715 9.10592 11.7756C10.3046 11.8798 11.3036 11.6715 12.2026 11.4631C12.2026 12.5048 11.9029 13.2339 11.7032 14.0672C11.0039 14.0672 10.2048 14.3797 9.70528 14.2755C9.4056 14.4839 9.30571 14.7964 9.10592 15.0047C9.10592 15.4213 9.20582 15.5255 9.10592 15.838C8.90614 15.9422 9.00603 16.463 8.90614 16.6713V18.2337C9.00603 18.5462 8.80624 18.5462 8.80624 18.7546V22.4003C8.70635 22.7127 8.90614 22.7127 8.90614 22.9211V26.046C9.00603 26.3584 8.80625 26.8793 9.00603 26.9834C8.90614 27.4001 8.60646 26.9834 8.20688 27.0876C7.70742 27.1917 7.30784 27.5042 6.70848 27.5042C6.80837 27.0876 7.00816 26.8793 7.00816 26.3584C7.00816 25.9418 6.60859 26.046 6.5087 25.8376C6.70848 25.2127 7.10805 24.6918 7.20795 23.9627C7.40773 23.4419 7.90721 22.6086 7.50763 22.0878C7.00816 21.9836 7.00816 22.4003 6.70848 22.5044C6.70848 22.6086 6.70848 22.7127 6.60859 22.7127C6.60859 22.8169 6.60859 22.9211 6.5087 22.9211C6.5087 23.0252 6.30891 23.0252 6.5087 22.9211C6.5087 22.8169 6.5087 22.7127 6.60859 22.7127C6.60859 22.6086 6.60859 22.5044 6.70848 22.5044V22.1919C7.10805 21.567 7.40774 20.942 7.50763 20.1087C7.70742 19.7962 7.80731 19.3795 7.9072 19.067C8.10699 18.7546 8.20689 18.1296 8.0071 17.8171C7.50763 17.8171 7.20795 18.1296 7.10806 18.5462C6.80838 18.3379 7.30784 18.1296 7.20795 17.8171C7.30784 17.6088 7.40774 17.1921 7.50763 16.9838C7.70742 16.5671 8.10699 15.6297 7.50763 15.3172C7.10806 15.3172 6.90827 15.5255 6.80838 15.838C6.60859 16.0463 6.4088 16.2546 6.30891 16.5671C5.90934 16.463 6.20901 15.838 6.10912 15.4213C6.00923 14.9005 6.20901 14.4839 6.10912 14.1714C5.50976 13.3381 4.11125 14.0672 2.91253 13.8589C2.81264 13.5464 2.71274 12.8173 2.81264 12.6089C3.81157 12.5048 5.30998 12.8173 6.00923 12.4006C6.00923 12.2965 6.00923 12.1923 6.10912 12.1923C6.20901 11.4631 5.80944 11.1507 5.60965 10.734C5.80944 9.9007 5.60965 8.65075 5.70955 7.60912C5.90933 7.50496 6.00923 7.19247 6.20901 6.98414C6.30891 5.94251 6.90827 5.4217 6.90827 4.38007C6.60859 4.38007 6.30891 4.27591 6.30891 4.5884C6.00923 4.48423 5.90934 5.10921 5.80944 4.79672C5.70955 4.2759 6.00923 4.17174 6.10912 3.75509C6.70848 3.33844 7.30784 2.92179 8.0071 2.50514C9.70529 2.29681 12.6022 2.08848 14.1006 2.71346C14.2005 3.33844 13.8009 3.65093 13.9008 4.27591H12.4024C11.3036 4.48423 10.4045 5.00505 9.40561 5.31753C9.20582 5.4217 9.10593 5.63002 8.90614 5.73419C8.90614 6.15084 8.70635 6.35916 8.60646 6.77582C8.30678 8.2341 8.50657 9.48405 8.50657 10.9423Z"/>
</svg>

<svg width="16" height="30" viewBox="0 0 16 30" xmlns="http://www.w3.org/2000/svg"><path d="M12.3 5.94c1 0 2 0 2.7-.31.4-.83.6-1.98.6-3.12-.2 0-.1-.32-.2-.42 0-.21-.3-.21-.3-.42-.3-.2-.5-.41-.7-.62-.7-.21-1.4-.32-2.2-.52-.8 0-1.9-.1-2.6.1-2.6 0-3.99 1.15-5.29 2.5 0 .1 0 .2-.1.2-.6 1.68-.1 3.76-.2 5.84.1.42.1 1.04.2 1.46-1 .31-2.2.42-3.4.52-.3.31-.2 1.15-.2 1.77.1.63.3 1.15.4 1.67.2.2.6.41.8.52.1 0 .1.1.1.1.5.32 1.5 0 2.3.1-.1 2.09.3 4.07 0 5.94 0 .32.3.42.2.84 0 1.04-.1 2.08.2 2.81-.3.52-.5 1.04-.4 1.88.1 0 .1.2.1.3-.1.53.6.22.5.74.2.52-.4.2-.4.52v.93c.5.32 1.5.21 2.3.21.9-.41 2.2-.52 2.8-1.25.5.21.9 0 1.2-.2 0-.32.3-.32.2-.73 0-.32-.2-.52-.1-.94v-3.02c-.2-2.4 0-5.1-.3-7.5.9-.1 1.9-.1 2.6-.42.4-.52.4-1.25.5-1.98.2-.2.2-.62.2-1.04.2-.2.1-.73.1-1.15-.1-.62-.2-1.35-.8-1.45-.9-.21-2 .62-3 .3 0-1.14-.3-2.39 0-3.53.8-.21 1.5-.42 2.2-.63zm-3.8 5c.1.31.3.52.4.73.1 0 .2 0 .2.1 1.2.11 2.2-.1 3.1-.3 0 1.03-.3 1.76-.5 2.6-.7 0-1.5.31-2 .2-.3.21-.4.53-.6.73 0 .42.1.53 0 .84-.2.1-.1.62-.2.83v1.56c.1.32-.1.32-.1.52v3.65c-.1.31.1.31.1.52v3.13c.1.3-.1.83.1.93-.1.42-.4 0-.8.1-.5.11-.9.42-1.5.42.1-.41.3-.62.3-1.14 0-.42-.4-.31-.5-.52.2-.63.6-1.15.7-1.88.2-.52.7-1.35.3-1.87-.5-.1-.5.31-.8.41 0 .1 0 .21-.1.21 0 .1 0 .21-.1.21 0 .1-.2.1 0 0 0-.1 0-.2.1-.2 0-.11 0-.22.1-.22v-.3c.4-.63.7-1.26.8-2.1.2-.3.3-.72.4-1.03.2-.32.3-.94.1-1.25-.5 0-.8.31-.9.73-.3-.21.2-.42.1-.73.1-.21.2-.63.3-.84.2-.41.6-1.35 0-1.66-.4 0-.6.2-.7.52-.2.2-.4.41-.5.73-.4-.1-.1-.73-.2-1.15-.1-.52.1-.94 0-1.25-.59-.83-1.99-.1-3.19-.31-.1-.31-.2-1.04-.1-1.25 1-.1 2.5.2 3.2-.2 0-.11 0-.22.1-.22.1-.73-.3-1.04-.5-1.46.2-.83 0-2.08.1-3.12.2-.1.3-.42.5-.63.1-1.04.7-1.56.7-2.6-.3 0-.6-.1-.6.2-.3-.1-.4.53-.5.22-.1-.52.2-.63.3-1.04.6-.42 1.2-.84 1.9-1.25 1.7-.21 4.6-.42 6.1.2.1.63-.3.94-.2 1.57h-1.5c-1.1.2-2 .73-3 1.04-.2.1-.3.31-.5.41 0 .42-.2.63-.3 1.05-.3 1.45-.1 2.7-.1 4.16z"/></svg>
